assets/Cigarette/Flat/cigarette_flat.svg

<svg width="32" height="32" viewBox="0 0 32 32" fill="none" xmlns="http://www.w3.org/2000/svg">
<path d="M5.04656 22H19.0139L20 25L19.0139 28H5.04656L4 25L5.04656 22Z" fill="#F4F4F4"/>
<path d="M4 26H21L19 30H4V26Z" fill="#D3D3D3"/>
<path d="M19 26L24.5 24L30 26V28.5C30 29.3284 29.3284 30 28.5 30H19V26Z" fill="#E19747"/>
<path d="M19 22H28.5C29.3284 22 30 22.6716 30 23.5V26H19V22Z" fill="#F9C23C"/>
<path d="M21.5781 23.99C21.5781 24.2661 21.3543 24.49 21.0781 24.49C20.802 24.49 20.5781 24.2661 20.5781 23.99C20.5781 23.7138 20.802 23.49 21.0781 23.49C21.3543 23.49 21.5781 23.7138 21.5781 23.99Z" fill="#FEEFC2"/>
<path d="M23.7482 26.05C23.7482 26.3262 23.5243 26.55 23.2482 26.55C22.972 26.55 22.7482 26.3262 22.7482 26.05C22.7482 25.7739 22.972 25.55 23.2482 25.55C23.5243 25.55 23.7482 25.7739 23.7482 26.05Z" fill="#FEEFC2"/>
<path d="M25.4082 24.49C25.6843 24.49 25.9082 24.2661 25.9082 23.99C25.9082 23.7138 25.6843 23.49 25.4082 23.49C25.1321 23.49 24.9082 23.7138 24.9082 23.99C24.9082 24.2661 25.1321 24.49 25.4082 24.49Z" fill="#FEEFC2"/>
<path d="M25.9082 28.1C25.9082 28.3761 25.6843 28.6 25.4082 28.6C25.1321 28.6 24.9082 28.3761 24.9082 28.1C24.9082 27.8238 25.1321 27.6 25.4082 27.6C25.6843 27.6 25.9082 27.8238 25.9082 28.1Z" fill="#FEEFC2"/>
<path d="M21.0781 28.6C21.3543 28.6 21.5781 28.3761 21.5781 28.1C21.5781 27.8238 21.3543 27.6 21.0781 27.6C20.802 27.6 20.5781 27.8238 20.5781 28.1C20.5781 28.3761 20.802 28.6 21.0781 28.6Z" fill="#FEEFC2"/>
<path d="M28.0681 26.05C28.0681 26.3262 27.8443 26.55 27.5681 26.55C27.292 26.55 27.0681 26.3262 27.0681 26.05C27.0681 25.7739 27.292 25.55 27.5681 25.55C27.8443 25.55 28.0681 25.7739 28.0681 26.05Z" fill="#FEEFC2"/>
<path d="M2 23.5C2 22.6716 2.67157 22 3.5 22H6L5.25 23C4.80556 23.5926 4.80556 24.4074 5.25 25C5.69444 25.5926 5.69444 26.4074 5.25 27C4.80556 27.5926 4.80556 28.4074 5.25 29L6 30H3.5C2.67157 30 2 29.3284 2 28.5V23.5Z" fill="#636363"/>
<path d="M11.4747 7.25562C11.0829 7.97342 10.6572 8.75358 10.9186 10.4531C10.9739 10.759 10.9186 11 10.7448 11C10.6895 11 10.5947 10.9815 10.4603 10.8424C8.18818 8.34898 9.02472 7.03724 9.92163 5.63084C10.3752 4.91964 10.8442 4.18423 10.9344 3.25956C10.9344 3.12051 11.0371 3 11.1635 3C11.2662 3 11.3295 3.08343 11.4085 3.25956C12.3913 5.57601 11.959 6.36816 11.4747 7.25562Z" fill="#9B9B9B"/>
<path d="M6.94931 14.4473C6.16584 15.7035 5.31432 17.0688 5.8372 20.0429C5.94781 20.5782 5.8372 21 5.48955 21C5.37893 21 5.18931 20.9676 4.92067 20.7242C0.376368 16.3607 2.04945 14.0652 3.84325 11.604C4.75037 10.3594 5.68836 9.0724 5.8688 7.45423C5.8688 7.21089 6.07423 7 6.32706 7C6.53249 7 6.65891 7.146 6.81693 7.45423C8.78257 11.508 7.91796 12.8943 6.94931 14.4473Z" fill="#9B9B9B"/>
</svg>

<svg xmlns="http://www.w3.org/2000/svg" width="32" height="32" fill="none"><path fill="#F4F4F4" d="M5.047 22h13.967L20 25l-.986 3H5.047L4 25l1.047-3Z"/><path fill="#D3D3D3" d="M4 26h17l-2 4H4v-4Z"/><path fill="#E19747" d="m19 26 5.5-2 5.5 2v2.5a1.5 1.5 0 0 1-1.5 1.5H19v-4Z"/><path fill="#F9C23C" d="M19 22h9.5a1.5 1.5 0 0 1 1.5 1.5V26H19v-4Z"/><path fill="#FEEFC2" d="M21.578 23.99a.5.5 0 1 1-1 0 .5.5 0 0 1 1 0ZM23.748 26.05a.5.5 0 1 1-1 0 .5.5 0 0 1 1 0ZM25.408 24.49a.5.5 0 1 0 0-1 .5.5 0 0 0 0 1ZM25.908 28.1a.5.5 0 1 1-1 0 .5.5 0 0 1 1 0ZM21.078 28.6a.5.5 0 1 0 0-1 .5.5 0 0 0 0 1ZM28.068 26.05a.5.5 0 1 1-1 0 .5.5 0 0 1 1 0Z"/><path fill="#636363" d="M2 23.5A1.5 1.5 0 0 1 3.5 22H6l-.75 1a1.667 1.667 0 0 0 0 2 1.667 1.667 0 0 1 0 2 1.667 1.667 0 0 0 0 2L6 30H3.5A1.5 1.5 0 0 1 2 28.5v-5Z"/><path fill="#9B9B9B" d="M11.475 7.256c-.392.717-.818 1.498-.556 3.197.055.306 0 .547-.174.547-.055 0-.15-.018-.285-.158-2.272-2.493-1.435-3.805-.538-5.211.453-.711.922-1.447 1.012-2.371 0-.14.103-.26.23-.26.102 0 .165.083.245.26.982 2.316.55 3.108.066 3.996ZM6.95 14.447c-.784 1.257-1.636 2.622-1.113 5.596.11.535 0 .957-.347.957-.111 0-.3-.032-.57-.276-4.544-4.363-2.87-6.659-1.077-9.12.907-1.245 1.845-2.532 2.026-4.15 0-.243.205-.454.458-.454.205 0 .332.146.49.454 1.966 4.054 1.101 5.44.132 6.993Z"/></svg>
